packages/components/src/components/icon/common/ic-assets-commodities.svg

<svg width="24" height="24" viewBox="0 0 24 24" fill="none" xmlns="http://www.w3.org/2000/svg">
<g clip-path="url(#clip0_6676:12189)">
<path d="M15.001 4.5C15.285 4.5 15.5447 4.6605 15.6718 4.91459L18.4635 10.5H20.251C20.4877 10.5 20.7075 10.6115 20.8477 10.7957L20.9218 10.9146L23.9218 16.9146C24.1711 17.4133 23.8085 18 23.251 18H0.750968C0.193431 18 -0.169191 17.4133 0.0801473 16.9146L3.08015 10.9146C3.20719 10.6605 3.46689 10.5 3.75097 10.5H5.5365L8.33015 4.91459C8.43602 4.70285 8.63401 4.5561 8.86146 4.51307L9.00097 4.5H15.001ZM19.786 12H14.77L13.0825 16.5H22.036L19.786 12ZM9.23047 12H4.21447L1.96447 16.5H10.918L9.23047 12ZM13.1685 12H10.8315L12 15.114L13.1685 12ZM14.536 6H9.46447L7.21447 10.5H16.786L14.536 6Z" fill="#333333"/>
</g>
<defs>
<clipPath id="clip0_6676:12189">
<rect width="24" height="24" fill="white"/>
</clipPath>
</defs>
</svg>

<svg width="24" height="24" fill="none" xmlns="http://www.w3.org/2000/svg"><g clip-path="url(#a)"><path d="M15.001 4.5a.75.75 0 0 1 .67.415l2.793 5.585h1.787a.75.75 0 0 1 .597.296l.074.119 3 6A.75.75 0 0 1 23.25 18H.751a.75.75 0 0 1-.67-1.085l3-6a.75.75 0 0 1 .67-.415h1.786L8.33 4.915a.75.75 0 0 1 .531-.402l.14-.013h6Zm4.785 7.5H14.77l-1.688 4.5h8.954l-2.25-4.5ZM9.23 12H4.214l-2.25 4.5h8.954L9.23 12Zm3.938 0h-2.336L12 15.114 13.168 12Zm1.368-6H9.464l-2.25 4.5h9.572L14.536 6Z" fill="var(--fill-color1)"/></g><defs><clipPath id="a"><path fill="#fff" d="M0 0h24v24H0z"/></clipPath></defs></svg>
